X: 4292
T: Hamilton Races.   a Jig.
%R: jig
B: Niel Gow & Sons "Complete Repository" v.4 p.29 #2
Z: 2021 John Chambers <jc:trillian.mit.edu>
M: 6/8
L: 1/8
K: D
% - - - - - - - - - -
% Voice 1 formatted for compactness and proofreading.
V: 1 staves=2
A |\
DFA ~d2f | ecA A2d | BdB AdF | GEE E2A | DFA d2f | eac d2B |cfe dcB | AAA A2 :|
|: c/d/ |\
ecA Ace | fed cBA | dbd cac | dBB d2F/E/ | DFA d2f | eac d2B | AdF GEA | FDD D2 :|
% - - - - - - - - - -
% Voice 2 preserves the book's staff layout.
V: 2 clef=bass middle=d
z |\
D3 d3 | A3 a3 | g3 f2d | A3 c3 | d3 d3 | c2A B2^G | A3 e2E | Ace a2 :|\
|: z |
A3 a3 | A3 a3 | ^g3 a3 | b3 B2c | d3 d'3 | c'3 b2g | a3 A3 | d3 D2 :|


